images/feature-icon-4.svg

<svg width="45" height="45" viewBox="0 0 45 45" fill="none" xmlns="http://www.w3.org/2000/svg">
<g clip-path="url(#clip0_1_2032)">
<path d="M32.9946 43.8681L29.4373 31.7419C29.4371 31.7412 29.4368 31.7405 29.4367 31.7397L28.1673 27.4127C28.1672 27.4122 28.167 27.4118 28.1669 27.4114L26.4128 21.432C26.4124 21.4308 26.4122 21.4297 26.4118 21.4286L23.6209 11.915C24.8495 11.4586 25.7272 10.2746 25.7272 8.8892C25.7272 7.10995 24.2797 5.66248 22.5005 5.66248C20.7213 5.66248 19.2738 7.11003 19.2738 8.8892C19.2738 10.2746 20.1515 11.4587 21.3801 11.915L15.5644 31.7399C15.5642 31.7406 15.5639 31.7413 15.5637 31.7421L12.0065 43.8682C11.8692 44.3361 12.1372 44.8268 12.6052 44.9642C13.0737 45.1014 13.5638 44.8334 13.7012 44.3654L14.242 42.5216L22.5006 37.0665L30.7592 42.5216L31.3 44.3654C31.413 44.7504 31.7652 45.0001 32.1471 45.0001C32.2294 45.0001 32.3132 44.9885 32.396 44.9642C32.8638 44.8268 33.1319 44.3361 32.9946 43.8681ZM21.0399 8.88903C21.0399 8.08369 21.6951 7.42846 22.5004 7.42846C23.3058 7.42846 23.961 8.08369 23.961 8.88903C23.961 9.69437 23.3058 10.3496 22.5004 10.3496C21.6951 10.3496 21.0399 9.69446 21.0399 8.88903ZM22.5004 14.37L24.3894 20.8093H20.6114L22.5004 14.37ZM20.0933 22.5754H24.9076L26.1443 26.7914H18.8566L20.0933 22.5754ZM15.0121 39.896L16.9231 33.3823L20.8983 36.008L15.0121 39.896ZM17.4432 31.6092L18.3385 28.5575H26.6625L27.5577 31.6092L22.5004 34.9497L17.4432 31.6092ZM24.1027 36.0081L28.0779 33.3824L29.9888 39.8961L24.1027 36.0081Z" fill="white"/>
<path d="M18.3024 4.69097C18.6472 4.34609 18.6472 3.78693 18.3024 3.44213C17.9575 3.09725 17.3984 3.09725 17.0534 3.44213C14.0503 6.44553 14.0503 11.3325 17.0535 14.3359C17.226 14.5084 17.4519 14.5946 17.678 14.5946C17.9039 14.5946 18.1299 14.5083 18.3024 14.3359C18.6472 13.991 18.6472 13.4319 18.3024 13.0871C15.9875 10.7723 15.9875 7.00575 18.3024 4.69097Z" fill="white"/>
<path d="M27.9473 3.44226C27.6025 3.09737 27.0435 3.09737 26.6984 3.44226C26.3535 3.78714 26.3535 4.3463 26.6984 4.69109C29.0132 7.00587 29.0132 10.7724 26.6984 13.0872C26.3536 13.4319 26.3536 13.9912 26.6985 14.3359C26.8709 14.5084 27.0969 14.5946 27.323 14.5946C27.549 14.5946 27.7749 14.5083 27.9474 14.3359C30.9507 11.3325 30.9507 6.44557 27.9473 3.44226Z" fill="white"/>
<path d="M15.1189 1.5075C15.4638 1.16262 15.4638 0.603457 15.1189 0.258662C14.774 -0.0862207 14.215 -0.0862207 13.87 0.258662C11.5648 2.56395 10.2952 5.62887 10.2952 8.88908C10.2952 12.1492 11.5648 15.2142 13.87 17.5195C14.0425 17.6919 14.2684 17.7782 14.4946 17.7782C14.7207 17.7782 14.9465 17.6919 15.119 17.5195C15.4639 17.1746 15.4639 16.6155 15.119 16.2707C11.0486 12.2004 11.0486 5.57772 15.1189 1.5075Z" fill="white"/>
<path d="M32.8994 2.4943C32.6437 2.07911 32.0996 1.94973 31.6843 2.20549C31.2692 2.46134 31.1399 3.0053 31.3956 3.42049C33.94 7.55083 33.3175 12.835 29.882 16.2705C29.5371 16.6153 29.5371 17.1745 29.882 17.5194C30.0544 17.6918 30.2804 17.778 30.5064 17.778C30.7324 17.778 30.9584 17.6918 31.1309 17.5194C33.084 15.5662 34.327 12.9815 34.6309 10.2415C34.93 7.54397 34.3152 4.79256 32.8994 2.4943Z" fill="white"/>
<path d="M30.5064 0C29.37 0 29.3681 1.76616 30.5064 1.76616C31.6428 1.76616 31.6447 0 30.5064 0Z" fill="white"/>
</g>
<defs>
<clipPath id="clip0_1_2032">
<rect width="45" height="45" fill="white"/>
</clipPath>
</defs>
</svg>

<svg xmlns="http://www.w3.org/2000/svg" width="45" height="45" fill="none"><g fill="#fff" clip-path="url(#a)"><path d="m32.995 43.868-3.558-12.126v-.002l-1.27-4.327v-.002l-1.754-5.979-.001-.003-2.791-9.514a3.23 3.23 0 0 0 2.106-3.026A3.23 3.23 0 0 0 22.5 5.662a3.23 3.23 0 0 0-3.226 3.227c0 1.386.877 2.57 2.106 3.026L15.564 31.74v.002l-3.557 12.126a.883.883 0 0 0 1.694.497l.541-1.843 8.259-5.456 8.258 5.456.541 1.843a.884.884 0 0 0 1.695-.497M21.04 8.89c0-.805.655-1.46 1.46-1.46.806 0 1.461.655 1.461 1.46s-.655 1.46-1.46 1.46c-.806 0-1.461-.655-1.461-1.46m1.46 5.481 1.89 6.44H20.61zm-2.407 8.205h4.815l1.236 4.216h-7.287zm-5.08 17.321 1.91-6.514 3.975 2.626zm2.43-8.287.895-3.052h8.325l.895 3.052-5.058 3.34zm6.66 4.4 3.975-2.627 1.91 6.514z"/><path d="M18.302 4.691a.883.883 0 0 0-1.249-1.249c-3.003 3.004-3.003 7.89 0 10.894a.88.88 0 0 0 1.25 0 .883.883 0 0 0 0-1.249 5.944 5.944 0 0 1 0-8.396M27.947 3.442a.883.883 0 1 0-1.249 1.25 5.944 5.944 0 0 1 0 8.395.883.883 0 1 0 1.25 1.249c3.003-3.004 3.003-7.89 0-10.894"/><path d="M15.119 1.508A.883.883 0 1 0 13.87.258a12.13 12.13 0 0 0-3.575 8.631c0 3.26 1.27 6.325 3.575 8.63a.88.88 0 0 0 1.249 0 .883.883 0 0 0 0-1.248c-4.07-4.07-4.07-10.693 0-14.763M32.9 2.494a.883.883 0 0 0-1.504.926 10.4 10.4 0 0 1-1.514 12.85.883.883 0 1 0 1.249 1.25 12.24 12.24 0 0 0 3.5-7.278 12.26 12.26 0 0 0-1.732-7.748M30.506 0c-1.136 0-1.138 1.766 0 1.766S31.645 0 30.506 0"/></g><defs><clipPath id="a"><path fill="#fff" d="M0 0h45v45H0z"/></clipPath></defs></svg>
